svg/fluentui-system-icons/ic_fluent_weather_moon_off_24_filled.svg

<svg width="24" height="24" viewBox="0 0 24 24" fill="none" xmlns="http://www.w3.org/2000/svg">
<path d="M3.28034 2.21968C2.98745 1.92678 2.51257 1.92677 2.21968 2.21966C1.92678 2.51255 1.92677 2.98743 2.21966 3.28032L10.4125 11.4733C9.23612 13.6704 7.22138 15.214 3.49418 16.5481C3.03059 16.714 2.84994 17.274 3.12921 17.6796C3.96449 18.8925 5.06116 19.91 6.36388 20.6621C10.281 22.9237 15.092 22.2343 18.2229 19.2839L20.7194 21.7805C21.0123 22.0734 21.4872 22.0734 21.7801 21.7805C22.073 21.4876 22.073 21.0127 21.7801 20.7198L3.28034 2.21968ZM16.3654 3.33892C21.1159 6.0816 22.7652 12.1329 20.0831 16.9015L11.4926 8.31074C11.7443 6.74993 11.6444 5.00818 11.1392 2.9385C11.02 2.44997 11.4058 1.9848 11.908 2.01174C13.465 2.09528 14.986 2.54252 16.3654 3.33892Z" fill="#212121"/>
</svg>

<svg xmlns="http://www.w3.org/2000/svg" width="24" height="24"><path d="M3.28 2.22a.75.75 0 1 0-1.06 1.06l8.193 8.193c-1.177 2.197-3.192 3.741-6.919 5.075a.75.75 0 0 0-.365 1.132 9.965 9.965 0 0 0 3.235 2.982c3.917 2.262 8.728 1.572 11.859-1.378l2.496 2.497a.75.75 0 0 0 1.061-1.061L3.28 2.22Zm13.085 1.119c4.75 2.743 6.4 8.794 3.718 13.562l-8.59-8.59c.251-1.561.151-3.303-.354-5.373a.75.75 0 0 1 .769-.926 9.961 9.961 0 0 1 4.457 1.327Z"/></svg>
